X:180
T:Slieve Gallen
N:"Slow with feeling"
B:O'Neill's 180
Z:Transcribed by henrik.norbeck@mailbox.swipnet.se
M:3/4
L:1/8
K:Gm
DF|G2 G/4A/4B3/2 AB|G4 G/4A/4B3/2|FD CB, G,2|B,2 D/C/B,/C/ D z|
.B.c.d.e TcB|.A.B.c.d TBA|.G.A.B.c TAB|G2 GA G z||
.B.c.d.e dc/B/|.A.B.c.d cB/A/|.G.A.B.c AG|GF D2 GG/A/|
.B.A.G.F EFD|.CB,/A,/ B,/C/.D G,/A,/B,/C/|DG/ z/ FA/ z/ GB/ z/|AG G2- GA|
B z z2 e/c/d/B/|~A z z2 d/B/c/A/|"#"~G z z2 c/A/B/G/|TAF D2- D 3F/G/A/|
.B.A.G.F.D.C|CB,/A,/ B,/C/D/G,/ A,B,/C/|DG F/G/A/ z/ G/A/B/ z/|AG G2- HG||
